icons/select-column-24.svg

<?xml version="1.0" encoding="UTF-8"?><svg id="icons" xmlns="http://www.w3.org/2000/svg" viewBox="0 0 24 24"><defs><style>.cls-1{fill:none;}.cls-1,.cls-2,.cls-3{stroke-width:0px;}.cls-2{fill:#6f6f6f;opacity:.25;}</style></defs><rect class="cls-1" width="24" height="24"/><path class="cls-2" d="M1,3v18h22V3H1ZM2,9h3v3h-3v-3ZM2,13h3v3h-3v-3ZM2,20v-3h3v3h-3ZM22,20H6v-3h8v-1H6v-3h8v-1H6v-3h8v-1H2v-4h20v16Z"/><path class="cls-3" d="M23,3h-9l.00012,18h9V3h-.00012ZM22.00012,20h-7v-3.00006h6.99988v-.99994h-6.99988v-3.00006h6.99988v-.99994h-6.99988v-3h7v11ZM22.00012,8h-7v-4h-.00012v-.00006h7.00012v4.00006Z"/></svg>

<svg xmlns="http://www.w3.org/2000/svg" viewBox="0 0 24 24"><path stroke-width="0" fill="none" d="M0 0h24v24H0z"/><path d="M1 3v18h22V3H1zm1 6h3v3H2V9zm0 4h3v3H2v-3zm0 7v-3h3v3H2zm20 0H6v-3h8v-1H6v-3h8v-1H6V9h8V8H2V4h20v16z" fill="#6f6f6f" opacity=".25" stroke-width="0"/><path d="M23 3h-9v18h9V3zm-1 17h-7v-3h7v-1h-7v-3h7v-1h-7V9h7v11zm0-12h-7V4h7v4z" stroke-width="0"/></svg>
